; G-Code generated by CNCSoft
G90
G21
F500.0
M5
G0 X12.407 Y7.500
M5
G0 X25.397 Y30.000
M3
G1 X22.793 Y29.772 S1000.0
M3
G1 X20.267 Y29.096 S1000.0
M3
G1 X17.897 Y27.991 S1000.0
M3
G1 X15.755 Y26.491 S1000.0
M3
G1 X13.907 Y24.642 S1000.0
M3
G1 X12.407 Y22.500 S1000.0
M3
G1 X11.302 Y20.130 S1000.0
M3
G1 X10.625 Y17.605 S1000.0
M3
G1 X10.397 Y15.000 S1000.0
M3
G1 X10.625 Y12.395 S1000.0
M3
G1 X11.302 Y9.870 S1000.0
M3
G1 X12.407 Y7.500 S1000.0
M3
G1 X13.907 Y5.358 S1000.0
M3
G1 X15.755 Y3.509 S1000.0
M3
G1 X17.897 Y2.010 S1000.0
M3
G1 X20.267 Y0.905 S1000.0
M3
G1 X22.793 Y0.228 S1000.0
M3
G1 X25.397 Y0.000 S1000.0
M3
G1 X28.002 Y0.228 S1000.0
M3
G1 X30.528 Y0.905 S1000.0
M3
G1 X32.897 Y2.010 S1000.0
M3
G1 X35.039 Y3.509 S1000.0
M3
G1 X36.888 Y5.358 S1000.0
M3
G1 X38.388 Y7.500 S1000.0
M3
G1 X39.493 Y9.870 S1000.0
M3
G1 X40.170 Y12.395 S1000.0
M3
G1 X40.397 Y15.000 S1000.0
M3
G1 X40.170 Y17.605 S1000.0
M3
G1 X39.493 Y20.130 S1000.0
M3
G1 X38.388 Y22.500 S1000.0
M3
G1 X36.888 Y24.642 S1000.0
M3
G1 X35.039 Y26.491 S1000.0
M3
G1 X32.897 Y27.991 S1000.0
M3
G1 X30.528 Y29.096 S1000.0
M3
G1 X28.002 Y29.772 S1000.0
M3
G1 X25.397 Y30.000 S1000.0
M5
G0 X70.402 Y52.486
M5
G0 X69.650 Y55.618
M3
G1 X71.358 Y55.619 S1000.0
M3
G1 X75.113 Y55.618 S1000.0
M3
G1 X78.869 Y55.619 S1000.0
M3
G1 X80.576 Y55.618 S1000.0
M3
G1 X80.509 Y54.950 S1000.0
M3
G1 X80.416 Y54.324 S1000.0
M3
G1 X80.297 Y53.742 S1000.0
M3
G1 X80.152 Y53.203 S1000.0
M3
G1 X79.982 Y52.707 S1000.0
M3
G1 X79.787 Y52.254 S1000.0
M3
G1 X79.567 Y51.845 S1000.0
M3
G1 X79.322 Y51.478 S1000.0
M3
G1 X78.912 Y50.976 S1000.0
M3
G1 X78.473 Y50.541 S1000.0
M3
G1 X78.003 Y50.172 S1000.0
M3
G1 X77.504 Y49.871 S1000.0
M3
G1 X76.976 Y49.636 S1000.0
M3
G1 X76.418 Y49.468 S1000.0
M3
G1 X75.831 Y49.367 S1000.0
M3
G1 X75.214 Y49.334 S1000.0
M3
G1 X74.654 Y49.360 S1000.0
M3
G1 X74.116 Y49.440 S1000.0
M3
G1 X73.602 Y49.574 S1000.0
M3
G1 X73.110 Y49.760 S1000.0
M3
G1 X72.641 Y50.001 S1000.0
M3
G1 X72.195 Y50.294 S1000.0
M3
G1 X71.772 Y50.641 S1000.0
M3
G1 X71.371 Y51.041 S1000.0
M3
G1 X71.005 Y51.487 S1000.0
M3
G1 X70.682 Y51.968 S1000.0
M3
G1 X70.402 Y52.486 S1000.0
M3
G1 X70.165 Y53.040 S1000.0
M3
G1 X69.972 Y53.630 S1000.0
M3
G1 X69.822 Y54.257 S1000.0
M3
G1 X69.714 Y54.920 S1000.0
M3
G1 X69.650 Y55.618 S1000.0
M5
G0 X69.461 Y58.656
M5
G0 X80.538 Y61.567
M3
G1 X81.076 Y61.646 S1000.0
M3
G1 X82.258 Y61.820 S1000.0
M3
G1 X83.441 Y61.994 S1000.0
M3
G1 X83.979 Y62.073 S1000.0
M3
G1 X83.756 Y62.885 S1000.0
M3
G1 X83.490 Y63.652 S1000.0
M3
G1 X83.180 Y64.372 S1000.0
M3
G1 X82.826 Y65.045 S1000.0
M3
G1 X82.430 Y65.671 S1000.0
M3
G1 X81.989 Y66.251 S1000.0
M3
G1 X81.506 Y66.783 S1000.0
M3
G1 X80.979 Y67.268 S1000.0
M3
G1 X80.412 Y67.701 S1000.0
M3
G1 X79.807 Y68.077 S1000.0
M3
G1 X79.164 Y68.394 S1000.0
M3
G1 X78.483 Y68.654 S1000.0
M3
G1 X77.764 Y68.857 S1000.0
M3
G1 X77.007 Y69.002 S1000.0
M3
G1 X76.212 Y69.089 S1000.0
M3
G1 X75.378 Y69.118 S1000.0
M3
G1 X74.849 Y69.106 S1000.0
M3
G1 X74.333 Y69.071 S1000.0
M3
G1 X73.831 Y69.014 S1000.0
M3
G1 X73.344 Y68.933 S1000.0
M3
G1 X72.870 Y68.829 S1000.0
M3
G1 X72.410 Y68.702 S1000.0
M3
G1 X71.963 Y68.552 S1000.0
M3
G1 X71.531 Y68.379 S1000.0
M3
G1 X71.113 Y68.183 S1000.0
M3
G1 X70.708 Y67.964 S1000.0
M3
G1 X70.318 Y67.722 S1000.0
M3
G1 X69.941 Y67.457 S1000.0
M3
G1 X69.578 Y67.168 S1000.0
M3
G1 X69.229 Y66.857 S1000.0
M3
G1 X68.894 Y66.522 S1000.0
M3
G1 X68.573 Y66.165 S1000.0
M3
G1 X68.268 Y65.787 S1000.0
M3
G1 X67.983 Y65.391 S1000.0
M3
G1 X67.718 Y64.977 S1000.0
M3
G1 X67.473 Y64.543 S1000.0
M3
G1 X67.247 Y64.091 S1000.0
M3
G1 X67.040 Y63.620 S1000.0
M3
G1 X66.854 Y63.131 S1000.0
M3
G1 X66.687 Y62.623 S1000.0
M3
G1 X66.540 Y62.096 S1000.0
M3
G1 X66.412 Y61.551 S1000.0
M3
G1 X66.304 Y60.987 S1000.0
M3
G1 X66.215 Y60.405 S1000.0
M3
G1 X66.147 Y59.803 S1000.0
M3
G1 X66.097 Y59.184 S1000.0
M3
G1 X66.068 Y58.546 S1000.0
M3
G1 X66.058 Y57.889 S1000.0
M3
G1 X66.068 Y57.211 S1000.0
M3
G1 X66.098 Y56.551 S1000.0
M3
G1 X66.147 Y55.911 S1000.0
M3
G1 X66.217 Y55.290 S1000.0
M3
G1 X66.306 Y54.688 S1000.0
M3
G1 X66.415 Y54.106 S1000.0
M3
G1 X66.544 Y53.542 S1000.0
M3
G1 X66.692 Y52.998 S1000.0
M3
G1 X66.861 Y52.473 S1000.0
M3
G1 X67.050 Y51.968 S1000.0
M3
G1 X67.258 Y51.481 S1000.0
M3
G1 X67.486 Y51.014 S1000.0
M3
G1 X67.734 Y50.567 S1000.0
M3
G1 X68.002 Y50.139 S1000.0
M3
G1 X68.290 Y49.730 S1000.0
M3
G1 X68.598 Y49.340 S1000.0
M3
G1 X68.922 Y48.971 S1000.0
M3
G1 X69.257 Y48.626 S1000.0
M3
G1 X69.605 Y48.305 S1000.0
M3
G1 X69.964 Y48.008 S1000.0
M3
G1 X70.335 Y47.734 S1000.0
M3
G1 X70.718 Y47.484 S1000.0
M3
G1 X71.112 Y47.258 S1000.0
M3
G1 X71.519 Y47.056 S1000.0
M3
G1 X71.937 Y46.878 S1000.0
M3
G1 X72.367 Y46.724 S1000.0
M3
G1 X72.809 Y46.593 S1000.0
M3
G1 X73.262 Y46.486 S1000.0
M3
G1 X73.728 Y46.403 S1000.0
M3
G1 X74.205 Y46.344 S1000.0
M3
G1 X74.694 Y46.308 S1000.0
M3
G1 X75.195 Y46.296 S1000.0
M3
G1 X75.680 Y46.308 S1000.0
M3
G1 X76.153 Y46.343 S1000.0
M3
G1 X76.616 Y46.401 S1000.0
M3
G1 X77.067 Y46.482 S1000.0
M3
G1 X77.506 Y46.587 S1000.0
M3
G1 X77.935 Y46.715 S1000.0
M3
G1 X78.352 Y46.866 S1000.0
M3
G1 X78.758 Y47.040 S1000.0
M3
G1 X79.153 Y47.238 S1000.0
M3
G1 X79.537 Y47.459 S1000.0
M3
G1 X79.909 Y47.704 S1000.0
M3
G1 X80.271 Y47.972 S1000.0
M3
G1 X80.621 Y48.263 S1000.0
M3
G1 X80.959 Y48.577 S1000.0
M3
G1 X81.287 Y48.915 S1000.0
M3
G1 X81.603 Y49.277 S1000.0
M3
G1 X81.904 Y49.659 S1000.0
M3
G1 X82.186 Y50.061 S1000.0
M3
G1 X82.448 Y50.481 S1000.0
M3
G1 X82.691 Y50.921 S1000.0
M3
G1 X82.915 Y51.379 S1000.0
M3
G1 X83.119 Y51.857 S1000.0
M3
G1 X83.304 Y52.353 S1000.0
M3
G1 X83.469 Y52.868 S1000.0
M3
G1 X83.615 Y53.402 S1000.0
M3
G1 X83.741 Y53.955 S1000.0
M3
G1 X83.849 Y54.527 S1000.0
M3
G1 X83.936 Y55.118 S1000.0
M3
G1 X84.004 Y55.728 S1000.0
M3
G1 X84.053 Y56.357 S1000.0
M3
G1 X84.082 Y57.005 S1000.0
M3
G1 X84.092 Y57.672 S1000.0
M3
G1 X84.091 Y57.856 S1000.0
M3
G1 X84.087 Y58.082 S1000.0
M3
G1 X84.082 Y58.349 S1000.0
M3
G1 X84.073 Y58.656 S1000.0
M3
G1 X81.790 Y58.656 S1000.0
M3
G1 X76.767 Y58.656 S1000.0
M3
G1 X71.745 Y58.656 S1000.0
M3
G1 X69.461 Y58.656 S1000.0
M3
G1 X69.531 Y59.529 S1000.0
M3
G1 X69.646 Y60.350 S1000.0
M3
G1 X69.806 Y61.118 S1000.0
M3
G1 X70.011 Y61.834 S1000.0
M3
G1 X70.262 Y62.497 S1000.0
M3
G1 X70.558 Y63.107 S1000.0
M3
G1 X70.900 Y63.664 S1000.0
M3
G1 X71.288 Y64.168 S1000.0
M3
G1 X71.710 Y64.616 S1000.0
M3
G1 X72.158 Y65.004 S1000.0
M3
G1 X72.631 Y65.332 S1000.0
M3
G1 X73.130 Y65.601 S1000.0
M3
G1 X73.654 Y65.811 S1000.0
M3
G1 X74.204 Y65.960 S1000.0
M3
G1 X74.779 Y66.050 S1000.0
M3
G1 X75.378 Y66.080 S1000.0
M3
G1 X75.826 Y66.063 S1000.0
M3
G1 X76.257 Y66.013 S1000.0
M3
G1 X76.672 Y65.929 S1000.0
M3
G1 X77.069 Y65.811 S1000.0
M3
G1 X77.450 Y65.660 S1000.0
M3
G1 X77.814 Y65.475 S1000.0
M3
G1 X78.161 Y65.257 S1000.0
M3
G1 X78.490 Y65.004 S1000.0
M3
G1 X78.806 Y64.715 S1000.0
M3
G1 X79.104 Y64.386 S1000.0
M3
G1 X79.385 Y64.017 S1000.0
M3
G1 X79.649 Y63.607 S1000.0
M3
G1 X79.896 Y63.157 S1000.0
M3
G1 X80.127 Y62.667 S1000.0
M3
G1 X80.341 Y62.137 S1000.0
M3
G1 X80.538 Y61.567 S1000.0
M5
G0 X69.461 Y58.656
M5
G0 X80.538 Y61.567
M3
G1 X81.076 Y61.646 S1000.0
M3
G1 X82.258 Y61.820 S1000.0
M3
G1 X83.441 Y61.994 S1000.0
M3
G1 X83.979 Y62.073 S1000.0
M3
G1 X83.756 Y62.885 S1000.0
M3
G1 X83.490 Y63.652 S1000.0
M3
G1 X83.180 Y64.372 S1000.0
M3
G1 X82.826 Y65.045 S1000.0
M3
G1 X82.430 Y65.671 S1000.0
M3
G1 X81.989 Y66.251 S1000.0
M3
G1 X81.506 Y66.783 S1000.0
M3
G1 X80.979 Y67.268 S1000.0
M3
G1 X80.412 Y67.701 S1000.0
M3
G1 X79.807 Y68.077 S1000.0
M3
G1 X79.164 Y68.394 S1000.0
M3
G1 X78.483 Y68.654 S1000.0
M3
G1 X77.764 Y68.857 S1000.0
M3
G1 X77.007 Y69.002 S1000.0
M3
G1 X76.212 Y69.089 S1000.0
M3
G1 X75.378 Y69.118 S1000.0
M3
G1 X74.849 Y69.106 S1000.0
M3
G1 X74.333 Y69.071 S1000.0
M3
G1 X73.831 Y69.014 S1000.0
M3
G1 X73.344 Y68.933 S1000.0
M3
G1 X72.870 Y68.829 S1000.0
M3
G1 X72.410 Y68.702 S1000.0
M3
G1 X71.963 Y68.552 S1000.0
M3
G1 X71.531 Y68.379 S1000.0
M3
G1 X71.113 Y68.183 S1000.0
M3
G1 X70.708 Y67.964 S1000.0
M3
G1 X70.318 Y67.722 S1000.0
M3
G1 X69.941 Y67.457 S1000.0
M3
G1 X69.578 Y67.168 S1000.0
M3
G1 X69.229 Y66.857 S1000.0
M3
G1 X68.894 Y66.522 S1000.0
M3
G1 X68.573 Y66.165 S1000.0
M3
G1 X68.268 Y65.787 S1000.0
M3
G1 X67.983 Y65.391 S1000.0
M3
G1 X67.718 Y64.977 S1000.0
M3
G1 X67.473 Y64.543 S1000.0
M3
G1 X67.247 Y64.091 S1000.0
M3
G1 X67.040 Y63.620 S1000.0
M3
G1 X66.854 Y63.131 S1000.0
M3
G1 X66.687 Y62.623 S1000.0
M3
G1 X66.540 Y62.096 S1000.0
M3
G1 X66.412 Y61.551 S1000.0
M3
G1 X66.304 Y60.987 S1000.0
M3
G1 X66.215 Y60.405 S1000.0
M3
G1 X66.147 Y59.803 S1000.0
M3
G1 X66.097 Y59.184 S1000.0
M3
G1 X66.068 Y58.546 S1000.0
M3
G1 X66.058 Y57.889 S1000.0
M3
G1 X66.068 Y57.211 S1000.0
M3
G1 X66.098 Y56.551 S1000.0
M3
G1 X66.147 Y55.911 S1000.0
M3
G1 X66.217 Y55.290 S1000.0
M3
G1 X66.306 Y54.688 S1000.0
M3
G1 X66.415 Y54.106 S1000.0
M3
G1 X66.544 Y53.542 S1000.0
M3
G1 X66.692 Y52.998 S1000.0
M3
G1 X66.861 Y52.473 S1000.0
M3
G1 X67.050 Y51.968 S1000.0
M3
G1 X67.258 Y51.481 S1000.0
M3
G1 X67.486 Y51.014 S1000.0
M3
G1 X67.734 Y50.567 S1000.0
M3
G1 X68.002 Y50.139 S1000.0
M3
G1 X68.290 Y49.730 S1000.0
M3
G1 X68.598 Y49.340 S1000.0
M3
G1 X68.922 Y48.971 S1000.0
M3
G1 X69.257 Y48.626 S1000.0
M3
G1 X69.605 Y48.305 S1000.0
M3
G1 X69.964 Y48.008 S1000.0
M3
G1 X70.335 Y47.734 S1000.0
M3
G1 X70.718 Y47.484 S1000.0
M3
G1 X71.112 Y47.258 S1000.0
M3
G1 X71.519 Y47.056 S1000.0
M3
G1 X71.937 Y46.878 S1000.0
M3
G1 X72.367 Y46.724 S1000.0
M3
G1 X72.809 Y46.593 S1000.0
M3
G1 X73.262 Y46.486 S1000.0
M3
G1 X73.728 Y46.403 S1000.0
M3
G1 X74.205 Y46.344 S1000.0
M3
G1 X74.694 Y46.308 S1000.0
M3
G1 X75.195 Y46.296 S1000.0
M3
G1 X75.680 Y46.308 S1000.0
M3
G1 X76.153 Y46.343 S1000.0
M3
G1 X76.616 Y46.401 S1000.0
M3
G1 X77.067 Y46.482 S1000.0
M3
G1 X77.506 Y46.587 S1000.0
M3
G1 X77.935 Y46.715 S1000.0
M3
G1 X78.352 Y46.866 S1000.0
M3
G1 X78.758 Y47.040 S1000.0
M3
G1 X79.153 Y47.238 S1000.0
M3
G1 X79.537 Y47.459 S1000.0
M3
G1 X79.909 Y47.704 S1000.0
M3
G1 X80.271 Y47.972 S1000.0
M3
G1 X80.621 Y48.263 S1000.0
M3
G1 X80.959 Y48.577 S1000.0
M3
G1 X81.287 Y48.915 S1000.0
M3
G1 X81.603 Y49.277 S1000.0
M3
G1 X81.904 Y49.659 S1000.0
M3
G1 X82.186 Y50.061 S1000.0
M3
G1 X82.448 Y50.481 S1000.0
M3
G1 X82.691 Y50.921 S1000.0
M3
G1 X82.915 Y51.379 S1000.0
M3
G1 X83.119 Y51.857 S1000.0
M3
G1 X83.304 Y52.353 S1000.0
M3
G1 X83.469 Y52.868 S1000.0
M3
G1 X83.615 Y53.402 S1000.0
M3
G1 X83.741 Y53.955 S1000.0
M3
G1 X83.849 Y54.527 S1000.0
M3
G1 X83.936 Y55.118 S1000.0
M3
G1 X84.004 Y55.728 S1000.0
M3
G1 X84.053 Y56.357 S1000.0
M3
G1 X84.082 Y57.005 S1000.0
M3
G1 X84.092 Y57.672 S1000.0
M3
G1 X84.091 Y57.856 S1000.0
M3
G1 X84.087 Y58.082 S1000.0
M3
G1 X84.082 Y58.349 S1000.0
M3
G1 X84.073 Y58.656 S1000.0
M3
G1 X81.790 Y58.656 S1000.0
M3
G1 X76.767 Y58.656 S1000.0
M3
G1 X71.745 Y58.656 S1000.0
M3
G1 X69.461 Y58.656 S1000.0
M3
G1 X69.531 Y59.529 S1000.0
M3
G1 X69.646 Y60.350 S1000.0
M3
G1 X69.806 Y61.118 S1000.0
M3
G1 X70.011 Y61.834 S1000.0
M3
G1 X70.262 Y62.497 S1000.0
M3
G1 X70.558 Y63.107 S1000.0
M3
G1 X70.900 Y63.664 S1000.0
M3
G1 X71.288 Y64.168 S1000.0
M3
G1 X71.710 Y64.616 S1000.0
M3
G1 X72.158 Y65.004 S1000.0
M3
G1 X72.631 Y65.332 S1000.0
M3
G1 X73.130 Y65.601 S1000.0
M3
G1 X73.654 Y65.811 S1000.0
M3
G1 X74.204 Y65.960 S1000.0
M3
G1 X74.779 Y66.050 S1000.0
M3
G1 X75.378 Y66.080 S1000.0
M3
G1 X75.826 Y66.063 S1000.0
M3
G1 X76.257 Y66.013 S1000.0
M3
G1 X76.672 Y65.929 S1000.0
M3
G1 X77.069 Y65.811 S1000.0
M3
G1 X77.450 Y65.660 S1000.0
M3
G1 X77.814 Y65.475 S1000.0
M3
G1 X78.161 Y65.257 S1000.0
M3
G1 X78.490 Y65.004 S1000.0
M3
G1 X78.806 Y64.715 S1000.0
M3
G1 X79.104 Y64.386 S1000.0
M3
G1 X79.385 Y64.017 S1000.0
M3
G1 X79.649 Y63.607 S1000.0
M3
G1 X79.896 Y63.157 S1000.0
M3
G1 X80.127 Y62.667 S1000.0
M3
G1 X80.341 Y62.137 S1000.0
M3
G1 X80.538 Y61.567 S1000.0
M5
G0 X69.461 Y58.656
M5
G0 X80.538 Y61.567
M3
G1 X81.076 Y61.646 S1000.0
M3
G1 X82.258 Y61.820 S1000.0
M3
G1 X83.441 Y61.994 S1000.0
M3
G1 X83.979 Y62.073 S1000.0
M3
G1 X83.756 Y62.885 S1000.0
M3
G1 X83.490 Y63.652 S1000.0
M3
G1 X83.180 Y64.372 S1000.0
M3
G1 X82.826 Y65.045 S1000.0
M3
G1 X82.430 Y65.671 S1000.0
M3
G1 X81.989 Y66.251 S1000.0
M3
G1 X81.506 Y66.783 S1000.0
M3
G1 X80.979 Y67.268 S1000.0
M3
G1 X80.412 Y67.701 S1000.0
M3
G1 X79.807 Y68.077 S1000.0
M3
G1 X79.164 Y68.394 S1000.0
M3
G1 X78.483 Y68.654 S1000.0
M3
G1 X77.764 Y68.857 S1000.0
M3
G1 X77.007 Y69.002 S1000.0
M3
G1 X76.212 Y69.089 S1000.0
M3
G1 X75.378 Y69.118 S1000.0
M3
G1 X74.849 Y69.106 S1000.0
M3
G1 X74.333 Y69.071 S1000.0
M3
G1 X73.831 Y69.014 S1000.0
M3
G1 X73.344 Y68.933 S1000.0
M3
G1 X72.870 Y68.829 S1000.0
M3
G1 X72.410 Y68.702 S1000.0
M3
G1 X71.963 Y68.552 S1000.0
M3
G1 X71.531 Y68.379 S1000.0
M3
G1 X71.113 Y68.183 S1000.0
M3
G1 X70.708 Y67.964 S1000.0
M3
G1 X70.318 Y67.722 S1000.0
M3
G1 X69.941 Y67.457 S1000.0
M3
G1 X69.578 Y67.168 S1000.0
M3
G1 X69.229 Y66.857 S1000.0
M3
G1 X68.894 Y66.522 S1000.0
M3
G1 X68.573 Y66.165 S1000.0
M3
G1 X68.268 Y65.787 S1000.0
M3
G1 X67.983 Y65.391 S1000.0
M3
G1 X67.718 Y64.977 S1000.0
M3
G1 X67.473 Y64.543 S1000.0
M3
G1 X67.247 Y64.091 S1000.0
M3
G1 X67.040 Y63.620 S1000.0
M3
G1 X66.854 Y63.131 S1000.0
M3
G1 X66.687 Y62.623 S1000.0
M3
G1 X66.540 Y62.096 S1000.0
M3
G1 X66.412 Y61.551 S1000.0
M3
G1 X66.304 Y60.987 S1000.0
M3
G1 X66.215 Y60.405 S1000.0
M3
G1 X66.147 Y59.803 S1000.0
M3
G1 X66.097 Y59.184 S1000.0
M3
G1 X66.068 Y58.546 S1000.0
M3
G1 X66.058 Y57.889 S1000.0
M3
G1 X66.068 Y57.211 S1000.0
M3
G1 X66.098 Y56.551 S1000.0
M3
G1 X66.147 Y55.911 S1000.0
M3
G1 X66.217 Y55.290 S1000.0
M3
G1 X66.306 Y54.688 S1000.0
M3
G1 X66.415 Y54.106 S1000.0
M3
G1 X66.544 Y53.542 S1000.0
M3
G1 X66.692 Y52.998 S1000.0
M3
G1 X66.861 Y52.473 S1000.0
M3
G1 X67.050 Y51.968 S1000.0
M3
G1 X67.258 Y51.481 S1000.0
M3
G1 X67.486 Y51.014 S1000.0
M3
G1 X67.734 Y50.567 S1000.0
M3
G1 X68.002 Y50.139 S1000.0
M3
G1 X68.290 Y49.730 S1000.0
M3
G1 X68.598 Y49.340 S1000.0
M3
G1 X68.922 Y48.971 S1000.0
M3
G1 X69.257 Y48.626 S1000.0
M3
G1 X69.605 Y48.305 S1000.0
M3
G1 X69.964 Y48.008 S1000.0
M3
G1 X70.335 Y47.734 S1000.0
M3
G1 X70.718 Y47.484 S1000.0
M3
G1 X71.112 Y47.258 S1000.0
M3
G1 X71.519 Y47.056 S1000.0
M3
G1 X71.937 Y46.878 S1000.0
M3
G1 X72.367 Y46.724 S1000.0
M3
G1 X72.809 Y46.593 S1000.0
M3
G1 X73.262 Y46.486 S1000.0
M3
G1 X73.728 Y46.403 S1000.0
M3
G1 X74.205 Y46.344 S1000.0
M3
G1 X74.694 Y46.308 S1000.0
M3
G1 X75.195 Y46.296 S1000.0
M3
G1 X75.680 Y46.308 S1000.0
M3
G1 X76.153 Y46.343 S1000.0
M3
G1 X76.616 Y46.401 S1000.0
M3
G1 X77.067 Y46.482 S1000.0
M3
G1 X77.506 Y46.587 S1000.0
M3
G1 X77.935 Y46.715 S1000.0
M3
G1 X78.352 Y46.866 S1000.0
M3
G1 X78.758 Y47.040 S1000.0
M3
G1 X79.153 Y47.238 S1000.0
M3
G1 X79.537 Y47.459 S1000.0
M3
G1 X79.909 Y47.704 S1000.0
M3
G1 X80.271 Y47.972 S1000.0
M3
G1 X80.621 Y48.263 S1000.0
M3
G1 X80.959 Y48.577 S1000.0
M3
G1 X81.287 Y48.915 S1000.0
M3
G1 X81.603 Y49.277 S1000.0
M3
G1 X81.904 Y49.659 S1000.0
M3
G1 X82.186 Y50.061 S1000.0
M3
G1 X82.448 Y50.481 S1000.0
M3
G1 X82.691 Y50.921 S1000.0
M3
G1 X82.915 Y51.379 S1000.0
M3
G1 X83.119 Y51.857 S1000.0
M3
G1 X83.304 Y52.353 S1000.0
M3
G1 X83.469 Y52.868 S1000.0
M3
G1 X83.615 Y53.402 S1000.0
M3
G1 X83.741 Y53.955 S1000.0
M3
G1 X83.849 Y54.527 S1000.0
M3
G1 X83.936 Y55.118 S1000.0
M3
G1 X84.004 Y55.728 S1000.0
M3
G1 X84.053 Y56.357 S1000.0
M3
G1 X84.082 Y57.005 S1000.0
M3
G1 X84.092 Y57.672 S1000.0
M3
G1 X84.091 Y57.856 S1000.0
M3
G1 X84.087 Y58.082 S1000.0
M3
G1 X84.082 Y58.349 S1000.0
M3
G1 X84.073 Y58.656 S1000.0
M3
G1 X81.790 Y58.656 S1000.0
M3
G1 X76.767 Y58.656 S1000.0
M3
G1 X71.745 Y58.656 S1000.0
M3
G1 X69.461 Y58.656 S1000.0
M3
G1 X69.531 Y59.529 S1000.0
M3
G1 X69.646 Y60.350 S1000.0
M3
G1 X69.806 Y61.118 S1000.0
M3
G1 X70.011 Y61.834 S1000.0
M3
G1 X70.262 Y62.497 S1000.0
M3
G1 X70.558 Y63.107 S1000.0
M3
G1 X70.900 Y63.664 S1000.0
M3
G1 X71.288 Y64.168 S1000.0
M3
G1 X71.710 Y64.616 S1000.0
M3
G1 X72.158 Y65.004 S1000.0
M3
G1 X72.631 Y65.332 S1000.0
M3
G1 X73.130 Y65.601 S1000.0
M3
G1 X73.654 Y65.811 S1000.0
M3
G1 X74.204 Y65.960 S1000.0
M3
G1 X74.779 Y66.050 S1000.0
M3
G1 X75.378 Y66.080 S1000.0
M3
G1 X75.826 Y66.063 S1000.0
M3
G1 X76.257 Y66.013 S1000.0
M3
G1 X76.672 Y65.929 S1000.0
M3
G1 X77.069 Y65.811 S1000.0
M3
G1 X77.450 Y65.660 S1000.0
M3
G1 X77.814 Y65.475 S1000.0
M3
G1 X78.161 Y65.257 S1000.0
M3
G1 X78.490 Y65.004 S1000.0
M3
G1 X78.806 Y64.715 S1000.0
M3
G1 X79.104 Y64.386 S1000.0
M3
G1 X79.385 Y64.017 S1000.0
M3
G1 X79.649 Y63.607 S1000.0
M3
G1 X79.896 Y63.157 S1000.0
M3
G1 X80.127 Y62.667 S1000.0
M3
G1 X80.341 Y62.137 S1000.0
M3
G1 X80.538 Y61.567 S1000.0
M5
G0 X69.461 Y58.656
M5
G0 X80.538 Y61.567
M3
G1 X81.076 Y61.646 S1000.0
M3
G1 X82.258 Y61.820 S1000.0
M3
G1 X83.441 Y61.994 S1000.0
M3
G1 X83.979 Y62.073 S1000.0
M3
G1 X83.756 Y62.885 S1000.0
M3
G1 X83.490 Y63.652 S1000.0
M3
G1 X83.180 Y64.372 S1000.0
M3
G1 X82.826 Y65.045 S1000.0
M3
G1 X82.430 Y65.671 S1000.0
M3
G1 X81.989 Y66.251 S1000.0
M3
G1 X81.506 Y66.783 S1000.0
M3
G1 X80.979 Y67.268 S1000.0
M3
G1 X80.412 Y67.701 S1000.0
M3
G1 X79.807 Y68.077 S1000.0
M3
G1 X79.164 Y68.394 S1000.0
M3
G1 X78.483 Y68.654 S1000.0
M3
G1 X77.764 Y68.857 S1000.0
M3
G1 X77.007 Y69.002 S1000.0
M3
G1 X76.212 Y69.089 S1000.0
M3
G1 X75.378 Y69.118 S1000.0
M3
G1 X74.849 Y69.106 S1000.0
M3
G1 X74.333 Y69.071 S1000.0
M3
G1 X73.831 Y69.014 S1000.0
M3
G1 X73.344 Y68.933 S1000.0
M3
G1 X72.870 Y68.829 S1000.0
M3
G1 X72.410 Y68.702 S1000.0
M3
G1 X71.963 Y68.552 S1000.0
M3
G1 X71.531 Y68.379 S1000.0
M3
G1 X71.113 Y68.183 S1000.0
M3
G1 X70.708 Y67.964 S1000.0
M3
G1 X70.318 Y67.722 S1000.0
M3
G1 X69.941 Y67.457 S1000.0
M3
G1 X69.578 Y67.168 S1000.0
M3
G1 X69.229 Y66.857 S1000.0
M3
G1 X68.894 Y66.522 S1000.0
M3
G1 X68.573 Y66.165 S1000.0
M3
G1 X68.268 Y65.787 S1000.0
M3
G1 X67.983 Y65.391 S1000.0
M3
G1 X67.718 Y64.977 S1000.0
M3
G1 X67.473 Y64.543 S1000.0
M3
G1 X67.247 Y64.091 S1000.0
M3
G1 X67.040 Y63.620 S1000.0
M3
G1 X66.854 Y63.131 S1000.0
M3
G1 X66.687 Y62.623 S1000.0
M3
G1 X66.540 Y62.096 S1000.0
M3
G1 X66.412 Y61.551 S1000.0
M3
G1 X66.304 Y60.987 S1000.0
M3
G1 X66.215 Y60.405 S1000.0
M3
G1 X66.147 Y59.803 S1000.0
M3
G1 X66.097 Y59.184 S1000.0
M3
G1 X66.068 Y58.546 S1000.0
M3
G1 X66.058 Y57.889 S1000.0
M3
G1 X66.068 Y57.211 S1000.0
M3
G1 X66.098 Y56.551 S1000.0
M3
G1 X66.147 Y55.911 S1000.0
M3
G1 X66.217 Y55.290 S1000.0
M3
G1 X66.306 Y54.688 S1000.0
M3
G1 X66.415 Y54.106 S1000.0
M3
G1 X66.544 Y53.542 S1000.0
M3
G1 X66.692 Y52.998 S1000.0
M3
G1 X66.861 Y52.473 S1000.0
M3
G1 X67.050 Y51.968 S1000.0
M3
G1 X67.258 Y51.481 S1000.0
M3
G1 X67.486 Y51.014 S1000.0
M3
G1 X67.734 Y50.567 S1000.0
M3
G1 X68.002 Y50.139 S1000.0
M3
G1 X68.290 Y49.730 S1000.0
M3
G1 X68.598 Y49.340 S1000.0
M3
G1 X68.922 Y48.971 S1000.0
M3
G1 X69.257 Y48.626 S1000.0
M3
G1 X69.605 Y48.305 S1000.0
M3
G1 X69.964 Y48.008 S1000.0
M3
G1 X70.335 Y47.734 S1000.0
M3
G1 X70.718 Y47.484 S1000.0
M3
G1 X71.112 Y47.258 S1000.0
M3
G1 X71.519 Y47.056 S1000.0
M3
G1 X71.937 Y46.878 S1000.0
M3
G1 X72.367 Y46.724 S1000.0
M3
G1 X72.809 Y46.593 S1000.0
M3
G1 X73.262 Y46.486 S1000.0
M3
G1 X73.728 Y46.403 S1000.0
M3
G1 X74.205 Y46.344 S1000.0
M3
G1 X74.694 Y46.308 S1000.0
M3
G1 X75.195 Y46.296 S1000.0
M3
G1 X75.680 Y46.308 S1000.0
M3
G1 X76.153 Y46.343 S1000.0
M3
G1 X76.616 Y46.401 S1000.0
M3
G1 X77.067 Y46.482 S1000.0
M3
G1 X77.506 Y46.587 S1000.0
M3
G1 X77.935 Y46.715 S1000.0
M3
G1 X78.352 Y46.866 S1000.0
M3
G1 X78.758 Y47.040 S1000.0
M3
G1 X79.153 Y47.238 S1000.0
M3
G1 X79.537 Y47.459 S1000.0
M3
G1 X79.909 Y47.704 S1000.0
M3
G1 X80.271 Y47.972 S1000.0
M3
G1 X80.621 Y48.263 S1000.0
M3
G1 X80.959 Y48.577 S1000.0
M3
G1 X81.287 Y48.915 S1000.0
M3
G1 X81.603 Y49.277 S1000.0
M3
G1 X81.904 Y49.659 S1000.0
M3
G1 X82.186 Y50.061 S1000.0
M3
G1 X82.448 Y50.481 S1000.0
M3
G1 X82.691 Y50.921 S1000.0
M3
G1 X82.915 Y51.379 S1000.0
M3
G1 X83.119 Y51.857 S1000.0
M3
G1 X83.304 Y52.353 S1000.0
M3
G1 X83.469 Y52.868 S1000.0
M3
G1 X83.615 Y53.402 S1000.0
M3
G1 X83.741 Y53.955 S1000.0
M3
G1 X83.849 Y54.527 S1000.0
M3
G1 X83.936 Y55.118 S1000.0
M3
G1 X84.004 Y55.728 S1000.0
M3
G1 X84.053 Y56.357 S1000.0
M3
G1 X84.082 Y57.005 S1000.0
M3
G1 X84.092 Y57.672 S1000.0
M3
G1 X84.091 Y57.856 S1000.0
M3
G1 X84.087 Y58.082 S1000.0
M3
G1 X84.082 Y58.349 S1000.0
M3
G1 X84.073 Y58.656 S1000.0
M3
G1 X81.790 Y58.656 S1000.0
M3
G1 X76.767 Y58.656 S1000.0
M3
G1 X71.745 Y58.656 S1000.0
M3
G1 X69.461 Y58.656 S1000.0
M3
G1 X69.531 Y59.529 S1000.0
M3
G1 X69.646 Y60.350 S1000.0
M3
G1 X69.806 Y61.118 S1000.0
M3
G1 X70.011 Y61.834 S1000.0
M3
G1 X70.262 Y62.497 S1000.0
M3
G1 X70.558 Y63.107 S1000.0
M3
G1 X70.900 Y63.664 S1000.0
M3
G1 X71.288 Y64.168 S1000.0
M3
G1 X71.710 Y64.616 S1000.0
M3
G1 X72.158 Y65.004 S1000.0
M3
G1 X72.631 Y65.332 S1000.0
M3
G1 X73.130 Y65.601 S1000.0
M3
G1 X73.654 Y65.811 S1000.0
M3
G1 X74.204 Y65.960 S1000.0
M3
G1 X74.779 Y66.050 S1000.0
M3
G1 X75.378 Y66.080 S1000.0
M3
G1 X75.826 Y66.063 S1000.0
M3
G1 X76.257 Y66.013 S1000.0
M3
G1 X76.672 Y65.929 S1000.0
M3
G1 X77.069 Y65.811 S1000.0
M3
G1 X77.450 Y65.660 S1000.0
M3
G1 X77.814 Y65.475 S1000.0
M3
G1 X78.161 Y65.257 S1000.0
M3
G1 X78.490 Y65.004 S1000.0
M3
G1 X78.806 Y64.715 S1000.0
M3
G1 X79.104 Y64.386 S1000.0
M3
G1 X79.385 Y64.017 S1000.0
M3
G1 X79.649 Y63.607 S1000.0
M3
G1 X79.896 Y63.157 S1000.0
M3
G1 X80.127 Y62.667 S1000.0
M3
G1 X80.341 Y62.137 S1000.0
M3
G1 X80.538 Y61.567 S1000.0
M5
G0 X69.461 Y58.656
M5
G0 X80.538 Y61.567
M3
G1 X81.076 Y61.646 S1000.0
M3
G1 X82.258 Y61.820 S1000.0
M3
G1 X83.441 Y61.994 S1000.0
M3
G1 X83.979 Y62.073 S1000.0
M3
G1 X83.756 Y62.885 S1000.0
M3
G1 X83.490 Y63.652 S1000.0
M3
G1 X83.180 Y64.372 S1000.0
M3
G1 X82.826 Y65.045 S1000.0
M3
G1 X82.430 Y65.671 S1000.0
M3
G1 X81.989 Y66.251 S1000.0
M3
G1 X81.506 Y66.783 S1000.0
M3
G1 X80.979 Y67.268 S1000.0
M3
G1 X80.412 Y67.701 S1000.0
M3
G1 X79.807 Y68.077 S1000.0
M3
G1 X79.164 Y68.394 S1000.0
M3
G1 X78.483 Y68.654 S1000.0
M3
G1 X77.764 Y68.857 S1000.0
M3
G1 X77.007 Y69.002 S1000.0
M3
G1 X76.212 Y69.089 S1000.0
M3
G1 X75.378 Y69.118 S1000.0
M3
G1 X74.849 Y69.106 S1000.0
M3
G1 X74.333 Y69.071 S1000.0
M3
G1 X73.831 Y69.014 S1000.0
M3
G1 X73.344 Y68.933 S1000.0
M3
G1 X72.870 Y68.829 S1000.0
M3
G1 X72.410 Y68.702 S1000.0
M3
G1 X71.963 Y68.552 S1000.0
M3
G1 X71.531 Y68.379 S1000.0
M3
G1 X71.113 Y68.183 S1000.0
M3
G1 X70.708 Y67.964 S1000.0
M3
G1 X70.318 Y67.722 S1000.0
M3
G1 X69.941 Y67.457 S1000.0
M3
G1 X69.578 Y67.168 S1000.0
M3
G1 X69.229 Y66.857 S1000.0
M3
G1 X68.894 Y66.522 S1000.0
M3
G1 X68.573 Y66.165 S1000.0
M3
G1 X68.268 Y65.787 S1000.0
M3
G1 X67.983 Y65.391 S1000.0
M3
G1 X67.718 Y64.977 S1000.0
M3
G1 X67.473 Y64.543 S1000.0
M3
G1 X67.247 Y64.091 S1000.0
M3
G1 X67.040 Y63.620 S1000.0
M3
G1 X66.854 Y63.131 S1000.0
M3
G1 X66.687 Y62.623 S1000.0
M3
G1 X66.540 Y62.096 S1000.0
M3
G1 X66.412 Y61.551 S1000.0
M3
G1 X66.304 Y60.987 S1000.0
M3
G1 X66.215 Y60.405 S1000.0
M3
G1 X66.147 Y59.803 S1000.0
M3
G1 X66.097 Y59.184 S1000.0
M3
G1 X66.068 Y58.546 S1000.0
M3
G1 X66.058 Y57.889 S1000.0
M3
G1 X66.068 Y57.211 S1000.0
M3
G1 X66.098 Y56.551 S1000.0
M3
G1 X66.147 Y55.911 S1000.0
M3
G1 X66.217 Y55.290 S1000.0
M3
G1 X66.306 Y54.688 S1000.0
M3
G1 X66.415 Y54.106 S1000.0
M3
G1 X66.544 Y53.542 S1000.0
M3
G1 X66.692 Y52.998 S1000.0
M3
G1 X66.861 Y52.473 S1000.0
M3
G1 X67.050 Y51.968 S1000.0
M3
G1 X67.258 Y51.481 S1000.0
M3
G1 X67.486 Y51.014 S1000.0
M3
G1 X67.734 Y50.567 S1000.0
M3
G1 X68.002 Y50.139 S1000.0
M3
G1 X68.290 Y49.730 S1000.0
M3
G1 X68.598 Y49.340 S1000.0
M3
G1 X68.922 Y48.971 S1000.0
M3
G1 X69.257 Y48.626 S1000.0
M3
G1 X69.605 Y48.305 S1000.0
M3
G1 X69.964 Y48.008 S1000.0
M3
G1 X70.335 Y47.734 S1000.0
M3
G1 X70.718 Y47.484 S1000.0
M3
G1 X71.112 Y47.258 S1000.0
M3
G1 X71.519 Y47.056 S1000.0
M3
G1 X71.937 Y46.878 S1000.0
M3
G1 X72.367 Y46.724 S1000.0
M3
G1 X72.809 Y46.593 S1000.0
M3
G1 X73.262 Y46.486 S1000.0
M3
G1 X73.728 Y46.403 S1000.0
M3
G1 X74.205 Y46.344 S1000.0
M3
G1 X74.694 Y46.308 S1000.0
M3
G1 X75.195 Y46.296 S1000.0
M3
G1 X75.680 Y46.308 S1000.0
M3
G1 X76.153 Y46.343 S1000.0
M3
G1 X76.616 Y46.401 S1000.0
M3
G1 X77.067 Y46.482 S1000.0
M3
G1 X77.506 Y46.587 S1000.0
M3
G1 X77.935 Y46.715 S1000.0
M3
G1 X78.352 Y46.866 S1000.0
M3
G1 X78.758 Y47.040 S1000.0
M3
G1 X79.153 Y47.238 S1000.0
M3
G1 X79.537 Y47.459 S1000.0
M3
G1 X79.909 Y47.704 S1000.0
M3
G1 X80.271 Y47.972 S1000.0
M3
G1 X80.621 Y48.263 S1000.0
M3
G1 X80.959 Y48.577 S1000.0
M3
G1 X81.287 Y48.915 S1000.0
M3
G1 X81.603 Y49.277 S1000.0
M3
G1 X81.904 Y49.659 S1000.0
M3
G1 X82.186 Y50.061 S1000.0
M3
G1 X82.448 Y50.481 S1000.0
M3
G1 X82.691 Y50.921 S1000.0
M3
G1 X82.915 Y51.379 S1000.0
M3
G1 X83.119 Y51.857 S1000.0
M3
G1 X83.304 Y52.353 S1000.0
M3
G1 X83.469 Y52.868 S1000.0
M3
G1 X83.615 Y53.402 S1000.0
M3
G1 X83.741 Y53.955 S1000.0
M3
G1 X83.849 Y54.527 S1000.0
M3
G1 X83.936 Y55.118 S1000.0
M3
G1 X84.004 Y55.728 S1000.0
M3
G1 X84.053 Y56.357 S1000.0
M3
G1 X84.082 Y57.005 S1000.0
M3
G1 X84.092 Y57.672 S1000.0
M3
G1 X84.091 Y57.856 S1000.0
M3
G1 X84.087 Y58.082 S1000.0
M3
G1 X84.082 Y58.349 S1000.0
M3
G1 X84.073 Y58.656 S1000.0
M3
G1 X81.790 Y58.656 S1000.0
M3
G1 X76.767 Y58.656 S1000.0
M3
G1 X71.745 Y58.656 S1000.0
M3
G1 X69.461 Y58.656 S1000.0
M3
G1 X69.531 Y59.529 S1000.0
M3
G1 X69.646 Y60.350 S1000.0
M3
G1 X69.806 Y61.118 S1000.0
M3
G1 X70.011 Y61.834 S1000.0
M3
G1 X70.262 Y62.497 S1000.0
M3
G1 X70.558 Y63.107 S1000.0
M3
G1 X70.900 Y63.664 S1000.0
M3
G1 X71.288 Y64.168 S1000.0
M3
G1 X71.710 Y64.616 S1000.0
M3
G1 X72.158 Y65.004 S1000.0
M3
G1 X72.631 Y65.332 S1000.0
M3
G1 X73.130 Y65.601 S1000.0
M3
G1 X73.654 Y65.811 S1000.0
M3
G1 X74.204 Y65.960 S1000.0
M3
G1 X74.779 Y66.050 S1000.0
M3
G1 X75.378 Y66.080 S1000.0
M3
G1 X75.826 Y66.063 S1000.0
M3
G1 X76.257 Y66.013 S1000.0
M3
G1 X76.672 Y65.929 S1000.0
M3
G1 X77.069 Y65.811 S1000.0
M3
G1 X77.450 Y65.660 S1000.0
M3
G1 X77.814 Y65.475 S1000.0
M3
G1 X78.161 Y65.257 S1000.0
M3
G1 X78.490 Y65.004 S1000.0
M3
G1 X78.806 Y64.715 S1000.0
M3
G1 X79.104 Y64.386 S1000.0
M3
G1 X79.385 Y64.017 S1000.0
M3
G1 X79.649 Y63.607 S1000.0
M3
G1 X79.896 Y63.157 S1000.0
M3
G1 X80.127 Y62.667 S1000.0
M3
G1 X80.341 Y62.137 S1000.0
M3
G1 X80.538 Y61.567 S1000.0
M5
G0 X69.461 Y58.656
M5
G0 X80.538 Y61.567
M3
G1 X81.076 Y61.646 S1000.0
M3
G1 X82.258 Y61.820 S1000.0
M3
G1 X83.441 Y61.994 S1000.0
M3
G1 X83.979 Y62.073 S1000.0
M3
G1 X83.756 Y62.885 S1000.0
M3
G1 X83.490 Y63.652 S1000.0
M3
G1 X83.180 Y64.372 S1000.0
M3
G1 X82.826 Y65.045 S1000.0
M3
G1 X82.430 Y65.671 S1000.0
M3
G1 X81.989 Y66.251 S1000.0
M3
G1 X81.506 Y66.783 S1000.0
M3
G1 X80.979 Y67.268 S1000.0
M3
G1 X80.412 Y67.701 S1000.0
M3
G1 X79.807 Y68.077 S1000.0
M3
G1 X79.164 Y68.394 S1000.0
M3
G1 X78.483 Y68.654 S1000.0
M3
G1 X77.764 Y68.857 S1000.0
M3
G1 X77.007 Y69.002 S1000.0
M3
G1 X76.212 Y69.089 S1000.0
M3
G1 X75.378 Y69.118 S1000.0
M3
G1 X74.849 Y69.106 S1000.0
M3
G1 X74.333 Y69.071 S1000.0
M3
G1 X73.831 Y69.014 S1000.0
M3
G1 X73.344 Y68.933 S1000.0
M3
G1 X72.870 Y68.829 S1000.0
M3
G1 X72.410 Y68.702 S1000.0
M3
G1 X71.963 Y68.552 S1000.0
M3
G1 X71.531 Y68.379 S1000.0
M3
G1 X71.113 Y68.183 S1000.0
M3
G1 X70.708 Y67.964 S1000.0
M3
G1 X70.318 Y67.722 S1000.0
M3
G1 X69.941 Y67.457 S1000.0
M3
G1 X69.578 Y67.168 S1000.0
M3
G1 X69.229 Y66.857 S1000.0
M3
G1 X68.894 Y66.522 S1000.0
M3
G1 X68.573 Y66.165 S1000.0
M3
G1 X68.268 Y65.787 S1000.0
M3
G1 X67.983 Y65.391 S1000.0
M3
G1 X67.718 Y64.977 S1000.0
M3
G1 X67.473 Y64.543 S1000.0
M3
G1 X67.247 Y64.091 S1000.0
M3
G1 X67.040 Y63.620 S1000.0
M3
G1 X66.854 Y63.131 S1000.0
M3
G1 X66.687 Y62.623 S1000.0
M3
G1 X66.540 Y62.096 S1000.0
M3
G1 X66.412 Y61.551 S1000.0
M3
G1 X66.304 Y60.987 S1000.0
M3
G1 X66.215 Y60.405 S1000.0
M3
G1 X66.147 Y59.803 S1000.0
M3
G1 X66.097 Y59.184 S1000.0
M3
G1 X66.068 Y58.546 S1000.0
M3
G1 X66.058 Y57.889 S1000.0
M3
G1 X66.068 Y57.211 S1000.0
M3
G1 X66.098 Y56.551 S1000.0
M3
G1 X66.147 Y55.911 S1000.0
M3
G1 X66.217 Y55.290 S1000.0
M3
G1 X66.306 Y54.688 S1000.0
M3
G1 X66.415 Y54.106 S1000.0
M3
G1 X66.544 Y53.542 S1000.0
M3
G1 X66.692 Y52.998 S1000.0
M3
G1 X66.861 Y52.473 S1000.0
M3
G1 X67.050 Y51.968 S1000.0
M3
G1 X67.258 Y51.481 S1000.0
M3
G1 X67.486 Y51.014 S1000.0
M3
G1 X67.734 Y50.567 S1000.0
M3
G1 X68.002 Y50.139 S1000.0
M3
G1 X68.290 Y49.730 S1000.0
M3
G1 X68.598 Y49.340 S1000.0
M3
G1 X68.922 Y48.971 S1000.0
M3
G1 X69.257 Y48.626 S1000.0
M3
G1 X69.605 Y48.305 S1000.0
M3
G1 X69.964 Y48.008 S1000.0
M3
G1 X70.335 Y47.734 S1000.0
M3
G1 X70.718 Y47.484 S1000.0
M3
G1 X71.112 Y47.258 S1000.0
M3
G1 X71.519 Y47.056 S1000.0
M3
G1 X71.937 Y46.878 S1000.0
M3
G1 X72.367 Y46.724 S1000.0
M3
G1 X72.809 Y46.593 S1000.0
M3
G1 X73.262 Y46.486 S1000.0
M3
G1 X73.728 Y46.403 S1000.0
M3
G1 X74.205 Y46.344 S1000.0
M3
G1 X74.694 Y46.308 S1000.0
M3
G1 X75.195 Y46.296 S1000.0
M3
G1 X75.680 Y46.308 S1000.0
M3
G1 X76.153 Y46.343 S1000.0
M3
G1 X76.616 Y46.401 S1000.0
M3
G1 X77.067 Y46.482 S1000.0
M3
G1 X77.506 Y46.587 S1000.0
M3
G1 X77.935 Y46.715 S1000.0
M3
G1 X78.352 Y46.866 S1000.0
M3
G1 X78.758 Y47.040 S1000.0
M3
G1 X79.153 Y47.238 S1000.0
M3
G1 X79.537 Y47.459 S1000.0
M3
G1 X79.909 Y47.704 S1000.0
M3
G1 X80.271 Y47.972 S1000.0
M3
G1 X80.621 Y48.263 S1000.0
M3
G1 X80.959 Y48.577 S1000.0
M3
G1 X81.287 Y48.915 S1000.0
M3
G1 X81.603 Y49.277 S1000.0
M3
G1 X81.904 Y49.659 S1000.0
M3
G1 X82.186 Y50.061 S1000.0
M3
G1 X82.448 Y50.481 S1000.0
M3
G1 X82.691 Y50.921 S1000.0
M3
G1 X82.915 Y51.379 S1000.0
M3
G1 X83.119 Y51.857 S1000.0
M3
G1 X83.304 Y52.353 S1000.0
M3
G1 X83.469 Y52.868 S1000.0
M3
G1 X83.615 Y53.402 S1000.0
M3
G1 X83.741 Y53.955 S1000.0
M3
G1 X83.849 Y54.527 S1000.0
M3
G1 X83.936 Y55.118 S1000.0
M3
G1 X84.004 Y55.728 S1000.0
M3
G1 X84.053 Y56.357 S1000.0
M3
G1 X84.082 Y57.005 S1000.0
M3
G1 X84.092 Y57.672 S1000.0
M3
G1 X84.091 Y57.856 S1000.0
M3
G1 X84.087 Y58.082 S1000.0
M3
G1 X84.082 Y58.349 S1000.0
M3
G1 X84.073 Y58.656 S1000.0
M3
G1 X81.790 Y58.656 S1000.0
M3
G1 X76.767 Y58.656 S1000.0
M3
G1 X71.745 Y58.656 S1000.0
M3
G1 X69.461 Y58.656 S1000.0
M3
G1 X69.531 Y59.529 S1000.0
M3
G1 X69.646 Y60.350 S1000.0
M3
G1 X69.806 Y61.118 S1000.0
M3
G1 X70.011 Y61.834 S1000.0
M3
G1 X70.262 Y62.497 S1000.0
M3
G1 X70.558 Y63.107 S1000.0
M3
G1 X70.900 Y63.664 S1000.0
M3
G1 X71.288 Y64.168 S1000.0
M3
G1 X71.710 Y64.616 S1000.0
M3
G1 X72.158 Y65.004 S1000.0
M3
G1 X72.631 Y65.332 S1000.0
M3
G1 X73.130 Y65.601 S1000.0
M3
G1 X73.654 Y65.811 S1000.0
M3
G1 X74.204 Y65.960 S1000.0
M3
G1 X74.779 Y66.050 S1000.0
M3
G1 X75.378 Y66.080 S1000.0
M3
G1 X75.826 Y66.063 S1000.0
M3
G1 X76.257 Y66.013 S1000.0
M3
G1 X76.672 Y65.929 S1000.0
M3
G1 X77.069 Y65.811 S1000.0
M3
G1 X77.450 Y65.660 S1000.0
M3
G1 X77.814 Y65.475 S1000.0
M3
G1 X78.161 Y65.257 S1000.0
M3
G1 X78.490 Y65.004 S1000.0
M3
G1 X78.806 Y64.715 S1000.0
M3
G1 X79.104 Y64.386 S1000.0
M3
G1 X79.385 Y64.017 S1000.0
M3
G1 X79.649 Y63.607 S1000.0
M3
G1 X79.896 Y63.157 S1000.0
M3
G1 X80.127 Y62.667 S1000.0
M3
G1 X80.341 Y62.137 S1000.0
M3
G1 X80.538 Y61.567 S1000.0
M5
G0 X39.120 Y71.021
M5
G0 X9.120 Y101.021
M3
G1 X39.120 Y101.021 S1000.0
M3
G1 X39.120 Y71.021 S1000.0
M3
G1 X9.120 Y71.021 S1000.0
M3
G1 X9.120 Y101.021 S1000.0
M3
G1 X9.120 Y101.021 S1000.0
M5
G0 X39.120 Y71.021
M5
G0 X9.120 Y101.021
M3
G1 X39.120 Y101.021 S1000.0
M3
G1 X39.120 Y71.021 S1000.0
M3
G1 X9.120 Y71.021 S1000.0
M3
G1 X9.120 Y101.021 S1000.0
M3
G1 X9.120 Y101.021 S1000.0
M5
G0 X39.120 Y71.021
M5
G0 X9.120 Y101.021
M3
G1 X39.120 Y101.021 S1000.0
M3
G1 X39.120 Y71.021 S1000.0
M3
G1 X9.120 Y71.021 S1000.0
M3
G1 X9.120 Y101.021 S1000.0
M3
G1 X9.120 Y101.021 S1000.0
M5
G0 X39.120 Y71.021
M5
G0 X9.120 Y101.021
M3
G1 X39.120 Y101.021 S1000.0
M3
G1 X39.120 Y71.021 S1000.0
M3
G1 X9.120 Y71.021 S1000.0
M3
G1 X9.120 Y101.021 S1000.0
M3
G1 X9.120 Y101.021 S1000.0
M5
G0 X39.120 Y71.021
M5
G0 X9.120 Y101.021
M3
G1 X39.120 Y101.021 S1000.0
M3
G1 X39.120 Y71.021 S1000.0
M3
G1 X9.120 Y71.021 S1000.0
M3
G1 X9.120 Y101.021 S1000.0
M3
G1 X9.120 Y101.021 S1000.0
M5
G0 X58.008 Y67.353
M5
G0 X63.872 Y65.342
M3
G1 X63.943 Y65.854 S1000.0
M3
G1 X64.099 Y66.980 S1000.0
M3
G1 X64.255 Y68.106 S1000.0
M3
G1 X64.325 Y68.618 S1000.0
M3
G1 X63.644 Y68.762 S1000.0
M3
G1 X62.999 Y68.865 S1000.0
M3
G1 X62.392 Y68.928 S1000.0
M3
G1 X61.824 Y68.949 S1000.0
M3
G1 X61.385 Y68.939 S1000.0
M3
G1 X60.972 Y68.909 S1000.0
M3
G1 X60.584 Y68.860 S1000.0
M3
G1 X60.221 Y68.790 S1000.0
M3
G1 X59.883 Y68.700 S1000.0
M3
G1 X59.571 Y68.590 S1000.0
M3
G1 X59.283 Y68.460 S1000.0
M3
G1 X59.020 Y68.309 S1000.0
M3
G1 X58.781 Y68.142 S1000.0
M3
G1 X58.560 Y67.963 S1000.0
M3
G1 X58.358 Y67.772 S1000.0
M3
G1 X58.174 Y67.569 S1000.0
M3
G1 X58.008 Y67.353 S1000.0
M3
G1 X57.861 Y67.125 S1000.0
M3
G1 X57.732 Y66.883 S1000.0
M3
G1 X57.621 Y66.628 S1000.0
M3
G1 X57.526 Y66.332 S1000.0
M3
G1 X57.444 Y65.963 S1000.0
M3
G1 X57.374 Y65.522 S1000.0
M3
G1 X57.318 Y65.010 S1000.0
M3
G1 X57.243 Y63.769 S1000.0
M3
G1 X57.218 Y62.241 S1000.0
M3
G1 X57.218 Y60.271 S1000.0
M3
G1 X57.218 Y55.935 S1000.0
M3
G1 X57.218 Y51.600 S1000.0
M3
G1 X57.218 Y49.629 S1000.0
M3
G1 X56.834 Y49.629 S1000.0
M3
G1 X55.989 Y49.629 S1000.0
M3
G1 X55.144 Y49.629 S1000.0
M3
G1 X54.760 Y49.629 S1000.0
M3
G1 X54.760 Y49.181 S1000.0
M3
G1 X54.760 Y48.194 S1000.0
M3
G1 X54.760 Y47.208 S1000.0
M3
G1 X54.760 Y46.760 S1000.0
M3
G1 X55.144 Y46.760 S1000.0
M3
G1 X55.989 Y46.760 S1000.0
M3
G1 X56.834 Y46.760 S1000.0
M3
G1 X57.218 Y46.760 S1000.0
M3
G1 X57.218 Y45.914 S1000.0
M3
G1 X57.218 Y44.053 S1000.0
M3
G1 X57.218 Y42.192 S1000.0
M3
G1 X57.218 Y41.346 S1000.0
M3
G1 X57.738 Y40.998 S1000.0
M3
G1 X58.881 Y40.232 S1000.0
M3
G1 X60.025 Y39.466 S1000.0
M3
G1 X60.545 Y39.118 S1000.0
M3
G1 X60.545 Y40.312 S1000.0
M3
G1 X60.545 Y42.939 S1000.0
M3
G1 X60.545 Y45.566 S1000.0
M3
G1 X60.545 Y46.760 S1000.0
M3
G1 X61.065 Y46.760 S1000.0
M3
G1 X62.208 Y46.760 S1000.0
M3
G1 X63.352 Y46.760 S1000.0
M3
G1 X63.872 Y46.760 S1000.0
M3
G1 X63.872 Y47.208 S1000.0
M3
G1 X63.872 Y48.195 S1000.0
M3
G1 X63.872 Y49.181 S1000.0
M3
G1 X63.872 Y49.629 S1000.0
M3
G1 X63.352 Y49.629 S1000.0
M3
G1 X62.208 Y49.629 S1000.0
M3
G1 X61.065 Y49.629 S1000.0
M3
G1 X60.545 Y49.629 S1000.0
M3
G1 X60.545 Y51.632 S1000.0
M3
G1 X60.545 Y56.041 S1000.0
M3
G1 X60.545 Y60.449 S1000.0
M3
G1 X60.545 Y62.452 S1000.0
M3
G1 X60.556 Y63.178 S1000.0
M3
G1 X60.588 Y63.760 S1000.0
M3
G1 X60.643 Y64.201 S1000.0
M3
G1 X60.721 Y64.498 S1000.0
M3
G1 X60.820 Y64.713 S1000.0
M3
G1 X60.948 Y64.905 S1000.0
M3
G1 X61.104 Y65.075 S1000.0
M3
G1 X61.288 Y65.223 S1000.0
M3
G1 X61.508 Y65.339 S1000.0
M3
G1 X61.770 Y65.422 S1000.0
M3
G1 X62.075 Y65.473 S1000.0
M3
G1 X62.423 Y65.490 S1000.0
M3
G1 X62.719 Y65.481 S1000.0
M3
G1 X63.060 Y65.453 S1000.0
M3
G1 X63.444 Y65.407 S1000.0
M3
G1 X63.872 Y65.342 S1000.0
M5
G0 X107.677 Y63.769
M5
G0 X114.306 Y65.342
M3
G1 X114.377 Y65.854 S1000.0
M3
G1 X114.533 Y66.980 S1000.0
M3
G1 X114.689 Y68.106 S1000.0
M3
G1 X114.760 Y68.618 S1000.0
M3
G1 X114.079 Y68.762 S1000.0
M3
G1 X113.434 Y68.865 S1000.0
M3
G1 X112.827 Y68.928 S1000.0
M3
G1 X112.259 Y68.949 S1000.0
M3
G1 X111.820 Y68.939 S1000.0
M3
G1 X111.407 Y68.909 S1000.0
M3
G1 X111.019 Y68.860 S1000.0
M3
G1 X110.656 Y68.790 S1000.0
M3
G1 X110.318 Y68.700 S1000.0
M3
G1 X110.005 Y68.590 S1000.0
M3
G1 X109.718 Y68.460 S1000.0
M3
G1 X109.455 Y68.309 S1000.0
M3
G1 X109.216 Y68.142 S1000.0
M3
G1 X108.995 Y67.963 S1000.0
M3
G1 X108.793 Y67.772 S1000.0
M3
G1 X108.609 Y67.569 S1000.0
M3
G1 X108.443 Y67.353 S1000.0
M3
G1 X108.296 Y67.125 S1000.0
M3
G1 X108.166 Y66.883 S1000.0
M3
G1 X108.056 Y66.628 S1000.0
M3
G1 X107.961 Y66.332 S1000.0
M3
G1 X107.878 Y65.963 S1000.0
M3
G1 X107.809 Y65.522 S1000.0
M3
G1 X107.753 Y65.010 S1000.0
M3
G1 X107.677 Y63.769 S1000.0
M3
G1 X107.652 Y62.241 S1000.0
M3
G1 X107.652 Y60.271 S1000.0
M3
G1 X107.652 Y55.935 S1000.0
M3
G1 X107.652 Y51.600 S1000.0
M3
G1 X107.652 Y49.629 S1000.0
M3
G1 X107.268 Y49.629 S1000.0
M3
G1 X106.424 Y49.629 S1000.0
M3
G1 X105.579 Y49.629 S1000.0
M3
G1 X105.195 Y49.629 S1000.0
M3
G1 X105.195 Y49.181 S1000.0
M3
G1 X105.195 Y48.194 S1000.0
M3
G1 X105.195 Y47.208 S1000.0
M3
G1 X105.195 Y46.760 S1000.0
M3
G1 X105.579 Y46.760 S1000.0
M3
G1 X106.424 Y46.760 S1000.0
M3
G1 X107.268 Y46.760 S1000.0
M3
G1 X107.652 Y46.760 S1000.0
M3
G1 X107.652 Y45.914 S1000.0
M3
G1 X107.652 Y44.053 S1000.0
M3
G1 X107.652 Y42.192 S1000.0
M3
G1 X107.652 Y41.346 S1000.0
M3
G1 X108.172 Y40.998 S1000.0
M3
G1 X109.316 Y40.232 S1000.0
M3
G1 X110.460 Y39.466 S1000.0
M3
G1 X110.979 Y39.118 S1000.0
M3
G1 X110.979 Y40.312 S1000.0
M3
G1 X110.979 Y42.939 S1000.0
M3
G1 X110.980 Y45.566 S1000.0
M3
G1 X110.979 Y46.760 S1000.0
M3
G1 X111.499 Y46.760 S1000.0
M3
G1 X112.643 Y46.760 S1000.0
M3
G1 X113.787 Y46.760 S1000.0
M3
G1 X114.306 Y46.760 S1000.0
M3
G1 X114.306 Y47.208 S1000.0
M3
G1 X114.306 Y48.195 S1000.0
M3
G1 X114.306 Y49.181 S1000.0
M3
G1 X114.306 Y49.629 S1000.0
M3
G1 X113.787 Y49.629 S1000.0
M3
G1 X112.643 Y49.629 S1000.0
M3
G1 X111.499 Y49.629 S1000.0
M3
G1 X110.979 Y49.629 S1000.0
M3
G1 X110.979 Y51.632 S1000.0
M3
G1 X110.979 Y56.041 S1000.0
M3
G1 X110.980 Y60.449 S1000.0
M3
G1 X110.979 Y62.452 S1000.0
M3
G1 X110.990 Y63.178 S1000.0
M3
G1 X111.023 Y63.760 S1000.0
M3
G1 X111.078 Y64.201 S1000.0
M3
G1 X111.156 Y64.498 S1000.0
M3
G1 X111.255 Y64.713 S1000.0
M3
G1 X111.383 Y64.905 S1000.0
M3
G1 X111.539 Y65.075 S1000.0
M3
G1 X111.723 Y65.223 S1000.0
M3
G1 X111.943 Y65.339 S1000.0
M3
G1 X112.205 Y65.422 S1000.0
M3
G1 X112.510 Y65.473 S1000.0
M3
G1 X112.857 Y65.490 S1000.0
M3
G1 X113.154 Y65.481 S1000.0
M3
G1 X113.494 Y65.453 S1000.0
M3
G1 X113.879 Y65.407 S1000.0
M3
G1 X114.306 Y65.342 S1000.0
M5
G0 X107.677 Y63.769
M5
G0 X114.306 Y65.342
M3
G1 X114.377 Y65.854 S1000.0
M3
G1 X114.533 Y66.980 S1000.0
M3
G1 X114.689 Y68.106 S1000.0
M3
G1 X114.760 Y68.618 S1000.0
M3
G1 X114.079 Y68.762 S1000.0
M3
G1 X113.434 Y68.865 S1000.0
M3
G1 X112.827 Y68.928 S1000.0
M3
G1 X112.259 Y68.949 S1000.0
M3
G1 X111.820 Y68.939 S1000.0
M3
G1 X111.407 Y68.909 S1000.0
M3
G1 X111.019 Y68.860 S1000.0
M3
G1 X110.656 Y68.790 S1000.0
M3
G1 X110.318 Y68.700 S1000.0
M3
G1 X110.005 Y68.590 S1000.0
M3
G1 X109.718 Y68.460 S1000.0
M3
G1 X109.455 Y68.309 S1000.0
M3
G1 X109.216 Y68.142 S1000.0
M3
G1 X108.995 Y67.963 S1000.0
M3
G1 X108.793 Y67.772 S1000.0
M3
G1 X108.609 Y67.569 S1000.0
M3
G1 X108.443 Y67.353 S1000.0
M3
G1 X108.296 Y67.125 S1000.0
M3
G1 X108.166 Y66.883 S1000.0
M3
G1 X108.056 Y66.628 S1000.0
M3
G1 X107.961 Y66.332 S1000.0
M3
G1 X107.878 Y65.963 S1000.0
M3
G1 X107.809 Y65.522 S1000.0
M3
G1 X107.753 Y65.010 S1000.0
M3
G1 X107.677 Y63.769 S1000.0
M3
G1 X107.652 Y62.241 S1000.0
M3
G1 X107.652 Y60.271 S1000.0
M3
G1 X107.652 Y55.935 S1000.0
M3
G1 X107.652 Y51.600 S1000.0
M3
G1 X107.652 Y49.629 S1000.0
M3
G1 X107.268 Y49.629 S1000.0
M3
G1 X106.424 Y49.629 S1000.0
M3
G1 X105.579 Y49.629 S1000.0
M3
G1 X105.195 Y49.629 S1000.0
M3
G1 X105.195 Y49.181 S1000.0
M3
G1 X105.195 Y48.194 S1000.0
M3
G1 X105.195 Y47.208 S1000.0
M3
G1 X105.195 Y46.760 S1000.0
M3
G1 X105.579 Y46.760 S1000.0
M3
G1 X106.424 Y46.760 S1000.0
M3
G1 X107.268 Y46.760 S1000.0
M3
G1 X107.652 Y46.760 S1000.0
M3
G1 X107.652 Y45.914 S1000.0
M3
G1 X107.652 Y44.053 S1000.0
M3
G1 X107.652 Y42.192 S1000.0
M3
G1 X107.652 Y41.346 S1000.0
M3
G1 X108.172 Y40.998 S1000.0
M3
G1 X109.316 Y40.232 S1000.0
M3
G1 X110.460 Y39.466 S1000.0
M3
G1 X110.979 Y39.118 S1000.0
M3
G1 X110.979 Y40.312 S1000.0
M3
G1 X110.979 Y42.939 S1000.0
M3
G1 X110.980 Y45.566 S1000.0
M3
G1 X110.979 Y46.760 S1000.0
M3
G1 X111.499 Y46.760 S1000.0
M3
G1 X112.643 Y46.760 S1000.0
M3
G1 X113.787 Y46.760 S1000.0
M3
G1 X114.306 Y46.760 S1000.0
M3
G1 X114.306 Y47.208 S1000.0
M3
G1 X114.306 Y48.195 S1000.0
M3
G1 X114.306 Y49.181 S1000.0
M3
G1 X114.306 Y49.629 S1000.0
M3
G1 X113.787 Y49.629 S1000.0
M3
G1 X112.643 Y49.629 S1000.0
M3
G1 X111.499 Y49.629 S1000.0
M3
G1 X110.979 Y49.629 S1000.0
M3
G1 X110.979 Y51.632 S1000.0
M3
G1 X110.979 Y56.041 S1000.0
M3
G1 X110.980 Y60.449 S1000.0
M3
G1 X110.979 Y62.452 S1000.0
M3
G1 X110.990 Y63.178 S1000.0
M3
G1 X111.023 Y63.760 S1000.0
M3
G1 X111.078 Y64.201 S1000.0
M3
G1 X111.156 Y64.498 S1000.0
M3
G1 X111.255 Y64.713 S1000.0
M3
G1 X111.383 Y64.905 S1000.0
M3
G1 X111.539 Y65.075 S1000.0
M3
G1 X111.723 Y65.223 S1000.0
M3
G1 X111.943 Y65.339 S1000.0
M3
G1 X112.205 Y65.422 S1000.0
M3
G1 X112.510 Y65.473 S1000.0
M3
G1 X112.857 Y65.490 S1000.0
M3
G1 X113.154 Y65.481 S1000.0
M3
G1 X113.494 Y65.453 S1000.0
M3
G1 X113.879 Y65.407 S1000.0
M3
G1 X114.306 Y65.342 S1000.0
M5
G0 X103.018 Y63.568
M5
G0 X86.858 Y62.115
M3
G1 X87.372 Y62.023 S1000.0
M3
G1 X88.503 Y61.820 S1000.0
M3
G1 X89.633 Y61.617 S1000.0
M3
G1 X90.147 Y61.524 S1000.0
M3
G1 X90.232 Y62.059 S1000.0
M3
G1 X90.347 Y62.562 S1000.0
M3
G1 X90.494 Y63.033 S1000.0
M3
G1 X90.671 Y63.471 S1000.0
M3
G1 X90.880 Y63.878 S1000.0
M3
G1 X91.119 Y64.252 S1000.0
M3
G1 X91.390 Y64.595 S1000.0
M3
G1 X91.691 Y64.906 S1000.0
M3
G1 X92.024 Y65.181 S1000.0
M3
G1 X92.388 Y65.419 S1000.0
M3
G1 X92.784 Y65.621 S1000.0
M3
G1 X93.212 Y65.786 S1000.0
M3
G1 X93.670 Y65.914 S1000.0
M3
G1 X94.160 Y66.007 S1000.0
M3
G1 X94.681 Y66.062 S1000.0
M3
G1 X95.233 Y66.080 S1000.0
M3
G1 X95.788 Y66.064 S1000.0
M3
G1 X96.307 Y66.016 S1000.0
M3
G1 X96.788 Y65.935 S1000.0
M3
G1 X97.233 Y65.821 S1000.0
M3
G1 X97.640 Y65.675 S1000.0
M3
G1 X98.011 Y65.496 S1000.0
M3
G1 X98.344 Y65.284 S1000.0
M3
G1 X98.641 Y65.040 S1000.0
M3
G1 X98.901 Y64.776 S1000.0
M3
G1 X99.126 Y64.500 S1000.0
M3
G1 X99.316 Y64.212 S1000.0
M3
G1 X99.472 Y63.912 S1000.0
M3
G1 X99.594 Y63.602 S1000.0
M3
G1 X99.681 Y63.279 S1000.0
M3
G1 X99.733 Y62.945 S1000.0
M3
G1 X99.750 Y62.600 S1000.0
M3
G1 X99.735 Y62.295 S1000.0
M3
G1 X99.688 Y62.006 S1000.0
M3
G1 X99.610 Y61.734 S1000.0
M3
G1 X99.501 Y61.478 S1000.0
M3
G1 X99.361 Y61.239 S1000.0
M3
G1 X99.190 Y61.017 S1000.0
M3
G1 X98.988 Y60.813 S1000.0
M3
G1 X98.755 Y60.625 S1000.0
M3
G1 X98.549 Y60.497 S1000.0
M3
G1 X98.280 Y60.361 S1000.0
M3
G1 X97.555 Y60.064 S1000.0
M3
G1 X96.579 Y59.733 S1000.0
M3
G1 X95.352 Y59.366 S1000.0
M3
G1 X93.668 Y58.872 S1000.0
M3
G1 X92.265 Y58.412 S1000.0
M3
G1 X91.140 Y57.986 S1000.0
M3
G1 X90.681 Y57.786 S1000.0
M3
G1 X90.292 Y57.594 S1000.0
M3
G1 X89.951 Y57.396 S1000.0
M3
G1 X89.631 Y57.180 S1000.0
M3
G1 X89.332 Y56.947 S1000.0
M3
G1 X89.054 Y56.696 S1000.0
M3
G1 X88.798 Y56.428 S1000.0
M3
G1 X88.563 Y56.141 S1000.0
M3
G1 X88.349 Y55.836 S1000.0
M3
G1 X88.156 Y55.513 S1000.0
M3
G1 X87.986 Y55.179 S1000.0
M3
G1 X87.837 Y54.836 S1000.0
M3
G1 X87.712 Y54.483 S1000.0
M3
G1 X87.609 Y54.122 S1000.0
M3
G1 X87.529 Y53.752 S1000.0
M3
G1 X87.472 Y53.373 S1000.0
M3
G1 X87.437 Y52.985 S1000.0
M3
G1 X87.426 Y52.588 S1000.0
M3
G1 X87.463 Y51.870 S1000.0
M3
G1 X87.576 Y51.180 S1000.0
M3
G1 X87.763 Y50.517 S1000.0
M3
G1 X88.024 Y49.882 S1000.0
M3
G1 X88.352 Y49.286 S1000.0
M3
G1 X88.734 Y48.743 S1000.0
M3
G1 X89.168 Y48.252 S1000.0
M3
G1 X89.656 Y47.815 S1000.0
M3
G1 X90.079 Y47.510 S1000.0
M3
G1 X90.572 Y47.229 S1000.0
M3
G1 X91.135 Y46.972 S1000.0
M3
G1 X91.767 Y46.739 S1000.0
M3
G1 X92.449 Y46.545 S1000.0
M3
G1 X93.153 Y46.407 S1000.0
M3
G1 X93.881 Y46.324 S1000.0
M3
G1 X94.634 Y46.296 S1000.0
M3
G1 X95.202 Y46.308 S1000.0
M3
G1 X95.752 Y46.342 S1000.0
M3
G1 X96.284 Y46.400 S1000.0
M3
G1 X96.798 Y46.482 S1000.0
M3
G1 X97.295 Y46.586 S1000.0
M3
G1 X97.774 Y46.714 S1000.0
M3
G1 X98.236 Y46.866 S1000.0
M3
G1 X98.679 Y47.041 S1000.0
M3
G1 X99.102 Y47.234 S1000.0
M3
G1 X99.496 Y47.444 S1000.0
M3
G1 X99.861 Y47.671 S1000.0
M3
G1 X100.197 Y47.915 S1000.0
M3
G1 X100.505 Y48.175 S1000.0
M3
G1 X100.784 Y48.451 S1000.0
M3
G1 X101.034 Y48.743 S1000.0
M3
G1 X101.256 Y49.052 S1000.0
M3
G1 X101.454 Y49.384 S1000.0
M3
G1 X101.637 Y49.743 S1000.0
M3
G1 X101.804 Y50.128 S1000.0
M3
G1 X101.955 Y50.540 S1000.0
M3
G1 X102.089 Y50.978 S1000.0
M3
G1 X102.208 Y51.444 S1000.0
M3
G1 X102.311 Y51.936 S1000.0
M3
G1 X102.397 Y52.455 S1000.0
M3
G1 X101.889 Y52.534 S1000.0
M3
G1 X100.771 Y52.708 S1000.0
M3
G1 X99.654 Y52.882 S1000.0
M3
G1 X99.145 Y52.961 S1000.0
M3
G1 X99.078 Y52.546 S1000.0
M3
G1 X98.984 Y52.153 S1000.0
M3
G1 X98.863 Y51.784 S1000.0
M3
G1 X98.716 Y51.438 S1000.0
M3
G1 X98.543 Y51.115 S1000.0
M3
G1 X98.344 Y50.817 S1000.0
M3
G1 X98.118 Y50.541 S1000.0
M3
G1 X97.866 Y50.290 S1000.0
M3
G1 X97.588 Y50.065 S1000.0
M3
G1 X97.283 Y49.870 S1000.0
M3
G1 X96.950 Y49.706 S1000.0
M3
G1 X96.590 Y49.572 S1000.0
M3
G1 X96.202 Y49.467 S1000.0
M3
G1 X95.787 Y49.393 S1000.0
M3
G1 X95.344 Y49.348 S1000.0
M3
G1 X94.873 Y49.334 S1000.0
M3
G1 X94.324 Y49.347 S1000.0
M3
G1 X93.815 Y49.386 S1000.0
M3
G1 X93.346 Y49.452 S1000.0
M3
G1 X92.918 Y49.544 S1000.0
M3
G1 X92.531 Y49.663 S1000.0
M3
G1 X92.185 Y49.808 S1000.0
M3
G1 X91.880 Y49.979 S1000.0
M3
G1 X91.615 Y50.177 S1000.0
M3
G1 X91.387 Y50.393 S1000.0
M3
G1 X91.189 Y50.617 S1000.0
M3
G1 X91.022 Y50.851 S1000.0
M3
G1 X90.884 Y51.094 S1000.0
M3
G1 X90.777 Y51.345 S1000.0
M3
G1 X90.701 Y51.606 S1000.0
M3
G1 X90.655 Y51.875 S1000.0
M3
G1 X90.639 Y52.153 S1000.0
M3
G1 X90.664 Y52.503 S1000.0
M3
G1 X90.739 Y52.837 S1000.0
M3
G1 X90.865 Y53.154 S1000.0
M3
G1 X91.042 Y53.453 S1000.0
M3
G1 X91.274 Y53.737 S1000.0
M3
G1 X91.563 Y53.995 S1000.0
M3
G1 X91.910 Y54.229 S1000.0
M3
G1 X92.315 Y54.438 S1000.0
M3
G1 X92.685 Y54.576 S1000.0
M3
G1 X93.296 Y54.780 S1000.0
M3
G1 X94.149 Y55.051 S1000.0
M3
G1 X95.245 Y55.387 S1000.0
M3
G1 X96.871 Y55.886 S1000.0
M3
G1 X98.232 Y56.339 S1000.0
M3
G1 X99.328 Y56.745 S1000.0
M3
G1 X100.160 Y57.102 S1000.0
M3
G1 X100.500 Y57.278 S1000.0
M3
G1 X100.822 Y57.474 S1000.0
M3
G1 X101.124 Y57.688 S1000.0
M3
G1 X101.408 Y57.922 S1000.0
M3
G1 X101.673 Y58.175 S1000.0
M3
G1 X101.918 Y58.446 S1000.0
M3
G1 X102.145 Y58.735 S1000.0
M3
G1 X102.353 Y59.043 S1000.0
M3
G1 X102.541 Y59.371 S1000.0
M3
G1 X102.704 Y59.719 S1000.0
M3
G1 X102.842 Y60.086 S1000.0
M3
G1 X102.954 Y60.473 S1000.0
M3
G1 X103.041 Y60.879 S1000.0
M3
G1 X103.104 Y61.304 S1000.0
M3
G1 X103.141 Y61.749 S1000.0
M3
G1 X103.154 Y62.213 S1000.0
M3
G1 X103.139 Y62.672 S1000.0
M3
G1 X103.093 Y63.123 S1000.0
M3
G1 X103.018 Y63.568 S1000.0
M3
G1 X102.912 Y64.006 S1000.0
M3
G1 X102.775 Y64.438 S1000.0
M3
G1 X102.608 Y64.863 S1000.0
M3
G1 X102.411 Y65.282 S1000.0
M3
G1 X102.183 Y65.694 S1000.0
M3
G1 X101.926 Y66.091 S1000.0
M3
G1 X101.643 Y66.465 S1000.0
M3
G1 X101.333 Y66.816 S1000.0
M3
G1 X100.997 Y67.144 S1000.0
M3
G1 X100.634 Y67.449 S1000.0
M3
G1 X100.244 Y67.730 S1000.0
M3
G1 X99.828 Y67.989 S1000.0
M3
G1 X99.385 Y68.224 S1000.0
M3
G1 X98.919 Y68.435 S1000.0
M3
G1 X98.439 Y68.616 S1000.0
M3
G1 X97.943 Y68.770 S1000.0
M3
G1 X97.433 Y68.895 S1000.0
M3
G1 X96.908 Y68.993 S1000.0
M3
G1 X96.369 Y69.062 S1000.0
M3
G1 X95.815 Y69.104 S1000.0
M3
G1 X95.245 Y69.118 S1000.0
M3
G1 X94.319 Y69.090 S1000.0
M3
G1 X93.449 Y69.007 S1000.0
M3
G1 X92.635 Y68.869 S1000.0
M3
G1 X91.877 Y68.676 S1000.0
M3
G1 X91.177 Y68.427 S1000.0
M3
G1 X90.533 Y68.124 S1000.0
M3
G1 X89.946 Y67.766 S1000.0
M3
G1 X89.416 Y67.353 S1000.0
M3
G1 X88.938 Y66.884 S1000.0
M3
G1 X88.506 Y66.362 S1000.0
M3
G1 X88.118 Y65.786 S1000.0
M3
G1 X87.776 Y65.158 S1000.0
M3
G1 X87.479 Y64.477 S1000.0
M3
G1 X87.227 Y63.743 S1000.0
M3
G1 X87.020 Y62.956 S1000.0
M3
G1 X86.858 Y62.115 S1000.0
M5
G0 X0.000 Y41.724
M3
G1 X41.000 Y41.724 S1000.0
M5
G0 X0 Y0